ion/volume-mute.svg

<svg viewBox="0 0 512 512" xmlns="http://www.w3.org/2000/svg"><path fill="none" stroke="#000" stroke-linecap="round" stroke-miterlimit="10" stroke-width="32" d="M416 432L64 80"/><g><path d="M243.33 98.86v0c-8.15-4.4-18.11-3.69-25.55 1.82l-.66.51 -28.52 23.35v0c-3.42 2.79-3.93 7.83-1.13 11.25 .16.2.34.4.53.59l54.33 54.33v0c3.12 3.12 8.18 3.12 11.31 0 1.5-1.51 2.34-3.55 2.34-5.67v-64.49 0c.09-9.02-4.78-17.36-12.67-21.71Z"/><path d="M251.33 335.29L96.69 180.69h-.001c-3-3.01-7.07-4.69-11.31-4.69H55.99v0c-13.26 0-24 10.74-24 24v112 0c0 13.25 10.74 24 24 24h69.76l92 75.31v0c7.54 5.59 17.66 6.25 25.87 1.69v0c7.72-4.41 12.46-12.66 12.37-21.55v-44.86 0c0-4.24-1.68-8.31-4.67-11.3Z"/><path d="M352 256c0-24.56-5.81-47.87-17.75-71.27v0c-3.97-7.9-13.59-11.09-21.48-7.13 -7.9 3.96-11.09 13.58-7.13 21.47 .03.06.06.12.09.19 9.59 18.78 14.25 37.34 14.25 56.72q0 4-.31 8.13v0c-.18 2.32.67 4.6 2.32 6.25l14.36 14.36v0c3.12 3.12 8.18 3.13 11.31.01 1.17-1.18 1.95-2.69 2.23-4.33h-.001c1.37-8.08 2.07-16.25 2.08-24.43Z"/><path d="M416 256c0-51.18-13.08-83.89-34.18-120.06v0c-4.56-7.58-14.39-10.03-21.96-5.48 -7.44 4.46-9.96 14.04-5.69 21.59 18.89 32.38 29.82 59.77 29.82 103.94 0 23.83-3.29 42.88-9.37 60.65v0c-1 2.89-.26 6.09 1.9 8.26l12.47 12.49v0c3.12 3.12 8.18 3.12 11.31 0 .79-.8 1.41-1.75 1.81-2.8 8.87-22.85 13.87-47.35 13.87-78.61Z"/><path d="M480 256c0-74.25-20.19-121.11-50.51-168.61v0c-4.76-7.46-14.66-9.65-22.11-4.89 -7.46 4.75-9.65 14.65-4.89 22.11C429.82 147.38 448 189.5 448 256c0 46.19-8.43 80.27-22.43 110.53h0c-1.41 3.03-.78 6.62 1.59 9l11.92 11.92v0c3.09 3.14 8.16 3.19 11.31.09 .66-.66 1.2-1.42 1.6-2.26 19.6-40.39 28-80.29 28-129.29Z"/></g></svg>

<svg xmlns="http://www.w3.org/2000/svg" width="512" height="512" viewBox="0 0 512 512"><line x1="416" y1="432" x2="64" y2="80" style="fill:none;stroke:#000;stroke-linecap:round;stroke-miterlimit:10;stroke-width:32px"/><path d="M243.33,98.86a23.89,23.89,0,0,0-25.55,1.82l-.66.51L188.6,124.54a8,8,0,0,0-.59,11.85l54.33,54.33A8,8,0,0,0,256,185.06V120.57A24.51,24.51,0,0,0,243.33,98.86Z"/><path d="M251.33,335.29,96.69,180.69A16,16,0,0,0,85.38,176H56a24,24,0,0,0-24,24V312a24,24,0,0,0,24,24h69.76l92,75.31A23.9,23.9,0,0,0,243.63,413,24.51,24.51,0,0,0,256,391.45V346.59A16,16,0,0,0,251.33,335.29Z"/><path d="M352,256c0-24.56-5.81-47.87-17.75-71.27a16,16,0,1,0-28.5,14.55C315.34,218.06,320,236.62,320,256q0,4-.31,8.13a8,8,0,0,0,2.32,6.25l14.36,14.36a8,8,0,0,0,13.55-4.31A146,146,0,0,0,352,256Z"/><path d="M416,256c0-51.18-13.08-83.89-34.18-120.06a16,16,0,0,0-27.64,16.12C373.07,184.44,384,211.83,384,256c0,23.83-3.29,42.88-9.37,60.65a8,8,0,0,0,1.9,8.26L389,337.4a8,8,0,0,0,13.13-2.79C411,311.76,416,287.26,416,256Z"/><path d="M480,256c0-74.25-20.19-121.11-50.51-168.61a16,16,0,1,0-27,17.22C429.82,147.38,448,189.5,448,256c0,46.19-8.43,80.27-22.43,110.53a8,8,0,0,0,1.59,9l11.92,11.92A8,8,0,0,0,452,385.29C471.6,344.9,480,305,480,256Z"/></svg>
